X:1
T:Walking with God
T:Walking with God
T:David C. Cook, harmonized by T. Martin Towne
T:David Caleb Cook, 1894
T:Public Domain Courtesy of the Cyber Hymnal™
C:David C. Cook, harmonized by T. Martin Towne
Z:Public Domain
Z:Courtesy of the Cyber Hymnal™
%%score ( 1 2 ) ( 3 4 )
L:1/8
Q:1/4=90
M:6/8
K:E
V:1 treble 
V:2 treble 
V:3 bass 
V:4 bass 
V:1
 [EG][DF][EG] [GB]3 | [DF][CE][DF] [EG]3 | [EG][EG][EG] [EG][B,F][B,G] | [DB]2 [FA] [EG]3 | %4
w: 1.~Walk- ing with God,|walk- ing with God;|High- er His ways than the|hea- vens are,|
w: 2.~Walk- ing with God,|walk- ing with God,|Out of at- tract- ions of|earth com- plete,|
w: 3.~Walk- ing with God,|walk- ing with God,|Far, far a- bo- ve earth’s|clouds and storms,|
 [DF][DF][DF] (FE)[DF] | [EG]2 [FA] [GB]3 | [DF]<[DF] z [DG]<[DG][B,F] | [B,E]3- [B,E]2 z || %8
w: Far, far a- way * from|earth’s vain care,|Walk- ing, walk- ing with|God. *|
w: Shel- tered and loved * in|His re- treat,|Walk- ing, walk- ing with|God. *|
w: Where no- thing comes * that|hurts or harms,|Walk- ing, walk- ing with|God. *|
"^Refrain" [Ac][Ac][Ac] [Ac]2 [Ee] | [EB]2 [DB] [EB]3 | [DF][DF][DF] E2 [DF] | [EG]2 [FA] [GB]3 | %12
w: ||||
w: Walking with God by night|and day; Walk-|ing with God the star-|ry way; Walk-|
w: ||||
 [Ac][Ac][Ac] [Ac]2 [Ee] | [EB]2 [DB] [EB]3 | [DF]<[DF] z [EG]<[EG][B,F] | ([B,E]3- [B,E]2) |] %16
w: ||||
w: ing with Him e- ter-|nal- ly, Walk-|ing, walk- ing with God.||
w: ||||
V:2
 x6 | x6 | x6 | x6 | x3 D2 x | x6 | x6 | x6 || x6 | x6 | x3 E2 x | x6 | x6 | x6 | x6 | x5 |] %16
V:3
 [E,B,][E,B,][E,B,] [E,B,]3 | [B,,B,][B,,B,][B,,B,] [E,B,]3 | %2
 [E,B,][E,B,][E,B,] [E,B,][D,B,][E,B,] | [B,,B,]2 [B,,B,] [E,B,]3 | %4
 [B,,B,][B,,B,][B,,B,] (A,G,)[B,,B,] | [E,B,]2 [E,B,] [E,B,]3 | B,<B, z [B,,B,]<[B,,B,][B,,A,] | %7
 [E,G,]3- [E,G,]2 z || [A,E][A,E][A,E] [A,E]2 [A,C] | [G,B,]2 [F,A,] [E,G,]3 | %10
 B,B,[A,B,] [G,B,]2 [F,B,] | [E,B,]2 [E,E] [E,E]3 | [A,E][A,E][A,E] [A,E]2 [A,C] | %13
 [G,B,]2 [F,A,] [E,G,]3 | [B,,B,]<[B,,B,] z [B,,B,]<[B,,B,][B,,A,] | [E,G,]3- [E,G,]2 |] %16
V:4
 x6 | x6 | x6 | x6 | x3 B,,2 x | x6 | B,<B, x4 | x6 || x6 | x6 | B,B, x4 | x6 | x6 | x6 | x6 | %15
 x5 |] %16

